static/lottie-assets/pages/home/hero/Your_latest_mentions.svg

<svg width="265" height="66" viewBox="0 0 265 66" fill="none" xmlns="http://www.w3.org/2000/svg">
<path d="M0.98 50.6L6.24 59.24V65H7.76V59.24L13.02 50.6H11.32L7 57.78L2.68 50.6H0.98ZM17.5706 54.76C14.6506 54.76 12.4906 56.98 12.4906 60C12.4906 63.02 14.6506 65.24 17.5706 65.24C20.5106 65.24 22.6706 63.02 22.6706 60C22.6706 56.98 20.5106 54.76 17.5706 54.76ZM17.5706 63.92C15.4706 63.92 13.9306 62.28 13.9306 60C13.9306 57.72 15.4706 56.08 17.5706 56.08C19.6906 56.08 21.2106 57.72 21.2106 60C21.2106 62.28 19.6906 63.92 17.5706 63.92ZM25.4334 61.3C25.4334 63.82 26.3534 65.24 28.8134 65.24C31.0134 65.24 32.3134 63.6 32.6934 62.68H32.7334C32.7334 62.7 32.6534 63.02 32.6534 63.46L32.6734 65H34.0734V55H32.5934V59.9C32.5934 62.06 31.1534 63.86 29.0134 63.86C27.1334 63.86 26.8934 62.48 26.8934 60.96V55H25.4334V61.3ZM37.8391 65H39.3191V60.6C39.3191 58.62 40.3591 56.2 42.4591 56.2C42.6991 56.2 42.8991 56.24 42.9591 56.26V54.82C42.8991 54.8 42.6391 54.76 42.3591 54.76C40.8591 54.76 39.7791 55.84 39.2391 57.3H39.1991C39.1991 57.26 39.2591 56.94 39.2391 56.54V55H37.8391V65ZM52.233 65V50.6H50.753V65H52.233ZM55.7636 56.92C56.3436 56.56 57.6236 56.08 59.0636 56.08C60.7236 56.08 61.8436 56.74 61.8436 58.66V59.28C57.6836 58.7 55.1436 59.92 55.1436 62.4C55.1436 64.12 56.4236 65.24 58.2636 65.24C60.6836 65.24 61.8636 63.06 61.9236 62.88H61.9636C61.9636 62.88 61.8836 63.22 61.9036 63.72V65H63.2836V58.58C63.2836 56.08 61.9636 54.76 59.2236 54.76C57.6436 54.76 56.3236 55.2 55.7636 55.52V56.92ZM58.4836 64C57.3436 64 56.6236 63.32 56.6236 62.34C56.6236 60.76 58.3836 59.84 61.8036 60.38C61.8036 62.12 60.3836 64 58.4836 64ZM65.6397 55V56.22H67.3597V62.24C67.3597 64.52 68.7597 65.24 70.1397 65.24C71.0597 65.24 71.8597 65.02 72.2997 64.78V63.48C71.7197 63.76 70.9797 63.94 70.3797 63.94C69.4797 63.94 68.8197 63.4 68.8197 61.86V56.22H71.9597V55H68.8197V52H67.3597V55H65.6397ZM78.4634 54.76C75.7434 54.76 73.6234 56.98 73.6234 60C73.6234 63.1 75.7634 65.24 78.8234 65.24C80.3834 65.24 81.7234 64.82 82.5634 64.32V62.92C81.6234 63.54 80.2234 63.92 78.8834 63.92C76.6634 63.92 75.2034 62.48 75.1634 60.3V60.22H82.9034C82.9034 60.04 82.9234 59.74 82.9234 59.42C82.9234 56.96 81.3434 54.76 78.4634 54.76ZM81.4434 59.14H75.2034C75.3834 57.54 76.5434 56.04 78.4434 56.04C80.4234 56.04 81.4634 57.54 81.4434 59.14ZM90.4888 62.5C90.4888 63.54 89.4488 63.98 88.2688 63.98C87.3288 63.98 86.0888 63.66 85.0688 63.2V64.58C85.9088 64.98 87.0888 65.24 88.3288 65.24C90.3888 65.24 91.8888 64.3 91.8888 62.5C91.8888 60.86 90.8288 60.08 88.6888 59.38C87.1888 58.9 86.4288 58.46 86.4288 57.54C86.4288 56.56 87.3488 56.04 88.6688 56.04C89.5488 56.04 90.5688 56.34 91.3088 56.74V55.36C90.6088 55.02 89.5488 54.76 88.5288 54.76C86.4888 54.76 85.0088 55.86 85.0088 57.52C85.0088 59.22 86.3288 60.02 88.0688 60.58C89.7088 61.1 90.4888 61.5 90.4888 62.5ZM93.667 55V56.22H95.387V62.24C95.387 64.52 96.787 65.24 98.167 65.24C99.087 65.24 99.887 65.02 100.327 64.78V63.48C99.747 63.76 99.007 63.94 98.407 63.94C97.507 63.94 96.847 63.4 96.847 61.86V56.22H99.987V55H96.847V52H95.387V55H93.667ZM107.823 55V65H109.303V60.26C109.303 58.26 110.463 56.14 112.663 56.14C114.463 56.14 114.723 57.54 114.723 59.02V65H116.183V60.26C116.183 58.3 117.263 56.14 119.483 56.14C121.223 56.14 121.603 57.42 121.603 59.04V65H123.063V58.7C123.063 56.24 122.143 54.76 119.623 54.76C118.023 54.76 116.623 55.9 116.023 57.2H116.003C115.723 55.62 114.603 54.76 112.943 54.76C111.303 54.76 109.723 55.9 109.203 57.32H109.163C109.183 57.3 109.243 56.98 109.243 56.54L109.223 55H107.823ZM130.631 54.76C127.911 54.76 125.791 56.98 125.791 60C125.791 63.1 127.931 65.24 130.991 65.24C132.551 65.24 133.891 64.82 134.731 64.32V62.92C133.791 63.54 132.391 63.92 131.051 63.92C128.831 63.92 127.371 62.48 127.331 60.3V60.22H135.071C135.071 60.04 135.091 59.74 135.091 59.42C135.091 56.96 133.511 54.76 130.631 54.76ZM133.611 59.14H127.371C127.551 57.54 128.711 56.04 130.611 56.04C132.591 56.04 133.631 57.54 133.611 59.14ZM138.097 55V65H139.577V60.1C139.577 57.86 141.137 56.14 143.257 56.14C145.137 56.14 145.377 57.52 145.377 59.04V65H146.837V58.7C146.837 56.26 145.977 54.76 143.457 54.76C141.197 54.76 139.837 56.4 139.477 57.32H139.437C139.457 57.3 139.517 56.98 139.517 56.54L139.497 55H138.097ZM148.921 55V56.22H150.641V62.24C150.641 64.52 152.041 65.24 153.421 65.24C154.341 65.24 155.141 65.02 155.581 64.78V63.48C155.001 63.76 154.261 63.94 153.661 63.94C152.761 63.94 152.101 63.4 152.101 61.86V56.22H155.241V55H152.101V52H150.641V55H148.921ZM157.525 52.08C157.525 52.64 157.905 53.04 158.505 53.04C159.065 53.04 159.485 52.64 159.485 52.08C159.485 51.52 159.065 51.12 158.505 51.12C157.905 51.12 157.525 51.52 157.525 52.08ZM157.765 55V65H159.245V55H157.765ZM167.375 54.76C164.455 54.76 162.295 56.98 162.295 60C162.295 63.02 164.455 65.24 167.375 65.24C170.315 65.24 172.475 63.02 172.475 60C172.475 56.98 170.315 54.76 167.375 54.76ZM167.375 63.92C165.275 63.92 163.735 62.28 163.735 60C163.735 57.72 165.275 56.08 167.375 56.08C169.495 56.08 171.015 57.72 171.015 60C171.015 62.28 169.495 63.92 167.375 63.92ZM175.538 55V65H177.018V60.1C177.018 57.86 178.578 56.14 180.698 56.14C182.578 56.14 182.818 57.52 182.818 59.04V65H184.278V58.7C184.278 56.26 183.418 54.76 180.898 54.76C178.638 54.76 177.278 56.4 176.918 57.32H176.878C176.898 57.3 176.958 56.98 176.958 56.54L176.938 55H175.538ZM192.422 62.5C192.422 63.54 191.382 63.98 190.202 63.98C189.262 63.98 188.022 63.66 187.002 63.2V64.58C187.842 64.98 189.022 65.24 190.262 65.24C192.322 65.24 193.822 64.3 193.822 62.5C193.822 60.86 192.762 60.08 190.622 59.38C189.122 58.9 188.362 58.46 188.362 57.54C188.362 56.56 189.282 56.04 190.602 56.04C191.482 56.04 192.502 56.34 193.242 56.74V55.36C192.542 55.02 191.482 54.76 190.462 54.76C188.422 54.76 186.942 55.86 186.942 57.52C186.942 59.22 188.262 60.02 190.002 60.58C191.642 61.1 192.422 61.5 192.422 62.5Z" fill="#E6E6E6"/>
<rect x="1" y="31" width="264" height="1" fill="#262626"/>
<g clip-path="url(#clip0_18_206)">
<path d="M264.609 2.50533L262.495 0.390666C262.245 0.140705 261.906 0.000284195 261.552 0.000284195C261.198 0.000284195 260.859 0.140705 260.609 0.390666L258.805 2.19467L262.805 6.19467L264.609 4.39067C264.859 4.14063 265 3.80155 265 3.448C265 3.09445 264.859 2.75537 264.609 2.50533V2.50533Z" fill="white"/>
<path d="M257.861 3.13867L250.333 10.6667L249 16L254.333 14.6667L261.861 7.13867L257.861 3.13867Z" fill="white"/>
</g>
<defs>
<clipPath id="clip0_18_206">
<rect width="16" height="16" fill="white" transform="translate(249)"/>
</clipPath>
</defs>
</svg>

<svg width="265" height="66" fill="none" xmlns="http://www.w3.org/2000/svg"><path d="m.98 50.6 5.26 8.64V65h1.52v-5.76l5.26-8.64h-1.7L7 57.78 2.68 50.6H.98zm16.59 4.16c-2.92 0-5.08 2.22-5.08 5.24s2.16 5.24 5.08 5.24c2.94 0 5.1-2.22 5.1-5.24s-2.16-5.24-5.1-5.24zm0 9.16c-2.1 0-3.64-1.64-3.64-3.92 0-2.28 1.54-3.92 3.64-3.92 2.12 0 3.64 1.64 3.64 3.92 0 2.28-1.52 3.92-3.64 3.92zm7.863-2.62c0 2.52.92 3.94 3.38 3.94 2.2 0 3.5-1.64 3.88-2.56h.04c0 .02-.08.34-.08.78l.02 1.54h1.4V55h-1.48v4.9c0 2.16-1.44 3.96-3.58 3.96-1.88 0-2.12-1.38-2.12-2.9V55h-1.46v6.3zM37.84 65h1.48v-4.4c0-1.98 1.04-4.4 3.14-4.4.24 0 .44.04.5.06v-1.44c-.06-.02-.32-.06-.6-.06-1.5 0-2.58 1.08-3.12 2.54h-.04c0-.04.06-.36.04-.76V55h-1.4v10zm14.394 0V50.6h-1.48V65h1.48zm3.53-8.08c.58-.36 1.86-.84 3.3-.84 1.66 0 2.78.66 2.78 2.58v.62c-4.16-.58-6.7.64-6.7 3.12 0 1.72 1.28 2.84 3.12 2.84 2.42 0 3.6-2.18 3.66-2.36h.04s-.08.34-.06.84V65h1.38v-6.42c0-2.5-1.32-3.82-4.06-3.82-1.58 0-2.9.44-3.46.76v1.4zm2.72 7.08c-1.14 0-1.86-.68-1.86-1.66 0-1.58 1.76-2.5 5.18-1.96 0 1.74-1.42 3.62-3.32 3.62zm7.157-9v1.22h1.72v6.02c0 2.28 1.4 3 2.78 3 .92 0 1.72-.22 2.16-.46v-1.3c-.58.28-1.32.46-1.92.46-.9 0-1.56-.54-1.56-2.08v-5.64h3.14V55h-3.14v-3h-1.46v3h-1.72zm12.823-.24c-2.72 0-4.84 2.22-4.84 5.24 0 3.1 2.14 5.24 5.2 5.24 1.56 0 2.9-.42 3.74-.92v-1.4c-.94.62-2.34 1-3.68 1-2.22 0-3.68-1.44-3.72-3.62v-.08h7.74c0-.18.02-.48.02-.8 0-2.46-1.58-4.66-4.46-4.66zm2.98 4.38h-6.24c.18-1.6 1.34-3.1 3.24-3.1 1.98 0 3.02 1.5 3 3.1zm9.046 3.36c0 1.04-1.04 1.48-2.22 1.48-.94 0-2.18-.32-3.2-.78v1.38c.84.4 2.02.66 3.26.66 2.06 0 3.56-.94 3.56-2.74 0-1.64-1.06-2.42-3.2-3.12-1.5-.48-2.26-.92-2.26-1.84 0-.98.92-1.5 2.24-1.5.88 0 1.9.3 2.64.7v-1.38c-.7-.34-1.76-.6-2.78-.6-2.04 0-3.52 1.1-3.52 2.76 0 1.7 1.32 2.5 3.06 3.06 1.64.52 2.42.92 2.42 1.92zm3.178-7.5v1.22h1.72v6.02c0 2.28 1.4 3 2.78 3 .92 0 1.72-.22 2.16-.46v-1.3c-.58.28-1.32.46-1.92.46-.9 0-1.56-.54-1.56-2.08v-5.64h3.14V55h-3.14v-3h-1.46v3h-1.72zm14.156 0v10h1.48v-4.74c0-2 1.16-4.12 3.36-4.12 1.8 0 2.06 1.4 2.06 2.88V65h1.46v-4.74c0-1.96 1.08-4.12 3.3-4.12 1.74 0 2.12 1.28 2.12 2.9V65h1.46v-6.3c0-2.46-.92-3.94-3.44-3.94-1.6 0-3 1.14-3.6 2.44h-.02c-.28-1.58-1.4-2.44-3.06-2.44-1.64 0-3.22 1.14-3.74 2.56h-.04c.02-.02.08-.34.08-.78l-.02-1.54h-1.4zm22.808-.24c-2.72 0-4.84 2.22-4.84 5.24 0 3.1 2.14 5.24 5.2 5.24 1.56 0 2.9-.42 3.74-.92v-1.4c-.94.62-2.34 1-3.68 1-2.22 0-3.68-1.44-3.72-3.62v-.08h7.74c0-.18.02-.48.02-.8 0-2.46-1.58-4.66-4.46-4.66zm2.98 4.38h-6.24c.18-1.6 1.34-3.1 3.24-3.1 1.98 0 3.02 1.5 3 3.1zm4.486-4.14v10h1.48v-4.9c0-2.24 1.56-3.96 3.68-3.96 1.88 0 2.12 1.38 2.12 2.9V65h1.46v-6.3c0-2.44-.86-3.94-3.38-3.94-2.26 0-3.62 1.64-3.98 2.56h-.04c.02-.02.08-.34.08-.78l-.02-1.54h-1.4zm10.824 0v1.22h1.72v6.02c0 2.28 1.4 3 2.78 3 .92 0 1.72-.22 2.16-.46v-1.3c-.58.28-1.32.46-1.92.46-.9 0-1.56-.54-1.56-2.08v-5.64h3.14V55h-3.14v-3h-1.46v3h-1.72zm8.604-2.92c0 .56.38.96.98.96.56 0 .98-.4.98-.96 0-.56-.42-.96-.98-.96-.6 0-.98.4-.98.96zm.24 2.92v10h1.48V55h-1.48zm9.61-.24c-2.92 0-5.08 2.22-5.08 5.24s2.16 5.24 5.08 5.24c2.94 0 5.1-2.22 5.1-5.24s-2.16-5.24-5.1-5.24zm0 9.16c-2.1 0-3.64-1.64-3.64-3.92 0-2.28 1.54-3.92 3.64-3.92 2.12 0 3.64 1.64 3.64 3.92 0 2.28-1.52 3.92-3.64 3.92zm8.163-8.92v10h1.48v-4.9c0-2.24 1.56-3.96 3.68-3.96 1.88 0 2.12 1.38 2.12 2.9V65h1.46v-6.3c0-2.44-.86-3.94-3.38-3.94-2.26 0-3.62 1.64-3.98 2.56h-.04c.02-.02.08-.34.08-.78l-.02-1.54h-1.4zm16.884 7.5c0 1.04-1.04 1.48-2.22 1.48-.94 0-2.18-.32-3.2-.78v1.38c.84.4 2.02.66 3.26.66 2.06 0 3.56-.94 3.56-2.74 0-1.64-1.06-2.42-3.2-3.12-1.5-.48-2.26-.92-2.26-1.84 0-.98.92-1.5 2.24-1.5.88 0 1.9.3 2.64.7v-1.38c-.7-.34-1.76-.6-2.78-.6-2.04 0-3.52 1.1-3.52 2.76 0 1.7 1.32 2.5 3.06 3.06 1.64.52 2.42.92 2.42 1.92z" fill="#E6E6E6"/><path fill="#262626" d="M1 31h264v1H1z"/><g clip-path="url(#a)" fill="#fff"><path d="M264.609 2.505 262.495.391a1.333 1.333 0 0 0-1.886 0l-1.804 1.804 4 4 1.804-1.804a1.334 1.334 0 0 0 0-1.886zM257.861 3.139l-7.528 7.528L249 16l5.333-1.333 7.528-7.528-4-4z"/></g><defs><clipPath id="a"><path fill="#fff" transform="translate(249)" d="M0 0h16v16H0z"/></clipPath></defs></svg>
